X: 3
T: LÃ¤ndler C Anm
M:3/4
L:1/8
K:C %%MIDI gchordon
GF |: "C"EG ce gc' | "G7"bf Ta2 fd | Bd fc' ba | "C"ae Tg2 gf | eg "_c"c'"_e"e' d'c' |
"" "Dm""_h"b"_d"d "_a"a2 "_d"dc | "G7""_h"B"_h"b "_a"ag "_f"f"_ h ="B |1 "C"c2z2 GF :|2 "C"c2z2 (3GAG |:\
"G7"FG BG fB | "C"ce g"_f#""_ **"^f ag | "G7""_f#"^fg "_h"bg "_d"d'g | 
"" "C"c'g ec ag | "Dm/F""_?"^g"_a"a "_d"d'"_?"c' "_h"b"_a"a |\
 "C/G""_f#"^fg c'b ag | "G7""_f#"^fg ag =fB |1 "C"c2z2 (3GAG :|2 "C"c2z2z2 |] 

